src/assets/icons/crate.svg

<svg width="22" height="22" viewBox="0 0 22 22" fill="none" xmlns="http://www.w3.org/2000/svg">
<path fill-rule="evenodd" clip-rule="evenodd" d="M19.1818 18.1818H18.4545L18.4545 2H19.1818V18.1818ZM17.4545 12.8141V18.1818H12V16.5455C12 15.9932 11.5523 15.5455 11 15.5455H3V2L12.9091 2V2.72727V3.81818V6.36364V7.45455V8.18182V11.8182C12.9091 12.3705 13.3568 12.8182 13.9091 12.8182H17.3636C17.3943 12.8182 17.4246 12.8168 17.4545 12.8141ZM13.9091 10.8182V11.8182H17.3636V9.18182H13.9091V10.2727C13.992 10.1623 14.124 10.0909 14.2727 10.0909C14.5238 10.0909 14.7273 10.2944 14.7273 10.5455C14.7273 10.7965 14.5238 11 14.2727 11C14.124 11 13.992 10.9286 13.9091 10.8182ZM17.3636 8.18182V7.45455H13.9091V8.18182H17.3636ZM17.3636 3.81818V6.36364L13.9091 6.36364V5.36368C13.992 5.47406 14.124 5.54545 14.2727 5.54545C14.5238 5.54545 14.7273 5.34195 14.7273 5.09091C14.7273 4.83987 14.5238 4.63636 14.2727 4.63636C14.124 4.63636 13.992 4.70776 13.9091 4.81814V3.81818H17.3636ZM13.9091 1H17.3636H18.4545H19.1818C19.7341 1 20.1818 1.44772 20.1818 2V18.1818C20.1818 18.7341 19.7341 19.1818 19.1818 19.1818H18.4545H18.3596C18.3623 19.2118 18.3636 19.2421 18.3636 19.2727V20C18.3636 20.5523 17.9159 21 17.3636 21H15.7273C15.175 21 14.7273 20.5523 14.7273 20V19.2727C14.7273 19.2421 14.7287 19.2118 14.7313 19.1818H11H7.45047C7.45317 19.2118 7.45455 19.2421 7.45455 19.2727V20C7.45455 20.5523 7.00683 21 6.45455 21H4.81818C4.2659 21 3.81818 20.5523 3.81818 20V19.2727C3.81818 19.2421 3.81956 19.2118 3.82226 19.1818H3C2.44772 19.1818 2 18.7341 2 18.1818V16.5455V2C2 1.44772 2.44772 1 3 1H13.9091ZM17.3636 2.72727V2H13.9091V2.72727L17.3636 2.72727ZM3 18.1818H11V16.5455H3L3 18.1818ZM6.45455 19.2727H4.81818V20H6.45455V19.2727ZM15.7273 19.2727H17.3636V20H15.7273V19.2727ZM11 5.63636H4.81818L4.81818 11.8182H11V5.63636ZM4.81818 4.63636C4.2659 4.63636 3.81818 5.08408 3.81818 5.63636V11.8182C3.81818 12.3705 4.2659 12.8182 4.81818 12.8182H11C11.5523 12.8182 12 12.3705 12 11.8182V5.63636C12 5.08408 11.5523 4.63636 11 4.63636H4.81818ZM4.27273 3.72727C4.52377 3.72727 4.72727 3.52377 4.72727 3.27273C4.72727 3.02169 4.52377 2.81818 4.27273 2.81818C4.02169 2.81818 3.81818 3.02169 3.81818 3.27273C3.81818 3.52377 4.02169 3.72727 4.27273 3.72727ZM4.72727 14.1818C4.72727 14.4329 4.52377 14.6364 4.27273 14.6364C4.02169 14.6364 3.81818 14.4329 3.81818 14.1818C3.81818 13.9308 4.02169 13.7273 4.27273 13.7273C4.52377 13.7273 4.72727 13.9308 4.72727 14.1818ZM11.5455 3.72727C11.7965 3.72727 12 3.52377 12 3.27273C12 3.02169 11.7965 2.81818 11.5455 2.81818C11.2944 2.81818 11.0909 3.02169 11.0909 3.27273C11.0909 3.52377 11.2944 3.72727 11.5455 3.72727ZM12 14.1818C12 14.4329 11.7965 14.6364 11.5455 14.6364C11.2944 14.6364 11.0909 14.4329 11.0909 14.1818C11.0909 13.9308 11.2944 13.7273 11.5455 13.7273C11.7965 13.7273 12 13.9308 12 14.1818ZM4.27273 16.9091C4.02169 16.9091 3.81818 17.1126 3.81818 17.3636C3.81818 17.6147 4.02169 17.8182 4.27273 17.8182H6.09091C6.34195 17.8182 6.54545 17.6147 6.54545 17.3636C6.54545 17.1126 6.34195 16.9091 6.09091 16.9091H4.27273Z" fill="white"/>
</svg>

<svg width="22" height="22" fill="none" xmlns="http://www.w3.org/2000/svg"><path fill-rule="evenodd" clip-rule="evenodd" d="M19.182 18.182h-.727V2h.727zm-1.727-5.368v5.368H12v-1.636a1 1 0 0 0-1-1H3V2h9.91v9.818a1 1 0 0 0 1 1h3.454q.045 0 .09-.004m-3.546-1.996v1h3.455V9.182h-3.455v1.09a.454.454 0 1 1 0 .546m3.455-2.636v-.727h-3.455v.727zm0-4.364v2.546h-3.455v-1a.454.454 0 1 0 0-.546v-1zM13.909 1h5.273a1 1 0 0 1 1 1v16.182a1 1 0 0 1-1 1h-.822l.004.09V20a1 1 0 0 1-1 1h-1.637a1 1 0 0 1-1-1v-.727q0-.046.004-.091H7.45q.005.045.005.09V20a1 1 0 0 1-1 1H4.818a1 1 0 0 1-1-1v-.727q0-.046.004-.091H3a1 1 0 0 1-1-1V2a1 1 0 0 1 1-1zm3.455 1.727V2h-3.455v.727zM3 18.182h8v-1.636H3zm3.455 1.09H4.818V20h1.637zm9.272 0h1.637V20h-1.637zM11 5.637H4.818v6.182H11zm-6.182-1a1 1 0 0 0-1 1v6.182a1 1 0 0 0 1 1H11a1 1 0 0 0 1-1V5.636a1 1 0 0 0-1-1zm-.545-.909a.455.455 0 1 0 0-.909.455.455 0 0 0 0 .91m.454 10.455a.455.455 0 1 1-.909 0 .455.455 0 0 1 .91 0m6.819-10.455a.455.455 0 1 0 0-.909.455.455 0 0 0 0 .91M12 14.182a.455.455 0 1 1-.91 0 .455.455 0 0 1 .91 0m-7.727 2.727a.455.455 0 1 0 0 .91H6.09a.455.455 0 0 0 0-.91z" fill="#fff"/></svg>
